X:18
T:Le plongeur noyé
R:Chanson
O:France
B:Le livre des Chansons (Henri Davenson) n°18
Z:<anamnese@caramail.com> -- http://anamnese.fr.st
M:6/8
L:1/8
Q:1/4=100
K:F
C F G A G/A/ | B3 A z z | A2-F A2-F | F E F G2-G/-F/ |!
F3-F z F | A2 G A2 B | A3-A z z | c B A G-A G | F3-F z A/B/ |!
c2 B G2 F | A3-A z A/-B/ | c2 B G2 F | A3-A z2 ||
W:La fille au roi d'Espagne
W:veut apprendre un métier,

